X: 22424
T: Ladies Step Up To Tea
R: slip jig
M: 9/8
K: Adorian
|:A2E EDE c2A|A2B c2d ecA|A2E EDE c2A|B2G G2B dBG:|
|:A2e e2d e2c|A2B c2d ecA|A2e e2d efg|B2G G2B dBG:|

